X:7452
T:I have a bonnet trimmed with blue
S:Sonya
R:Polka
P:ABACDA
O:Scotland
N:Felicity has an Irish 2-part of this (look up sometime)
M:2/4
L:1/8
K:D
P:A
AB/A/ FA|dA f2|fe/f/ ge|d/c/d/e/ fd|\
AB/A/ FA|dA f2|fe/f/ gc|ed d2::
P:B
ef/e/ ce|ac e2|ef/e/ dB|fe c2|\
ef/e/ ce|ac e2|ef/e/ dB|BA A2::
P:C
K:G
GB Bd|de/d/ B2|de/d/ cA|ed B2|\
GB Bd|de/d/ B2|de/d/ cF|AG G2::
P:D
ge eg|de/d/ B2|de/d/ cA|ed B2|\
ge eg|de/d/ B2|de/d/ cF|AG G2::
